X: 366
T: Leave the Poor Pipe
T: F\`ag a Ph\`iob Bhochd
C: Allan MacDonald
R: reel
Z: 2014 John Chambers <jc:trillian.mit.edu>
S: Page from Concord Slow Scottish Session collection
S: handwritten copy from Barbara McOwen, in the Concord Slow Scottish Session collection
S: From a transcription by Margaret Lepley
S: SRSHH 12.9
M: C|
L: 1/8
K: D
AB |\
"D"dAA2 defe | "Em"eBB2 "A7"efge | "D"faag "A7"agec | "D"dcde "A7"fdBc | "D"dAA2 defe |
"Em"eBB2 "A7"efge | "D"faag "A7"agec | "D"dAfe d2 :| AB | "A7"cAA2 cAec | "D"dAA2 dAfd |
"Em"eBB2 "A7"efge | "D"faag "A7"agec | "D"dAA2 "Bm"dAfd | "Em"eBB2 "A7"efge | "D"daag "A7"agec | "D"dAfe d2 :|

%%sep 1 1 500

